optimized/outline/folder-add.svg

<svg xmlns="http://www.w3.org/2000/svg" fill="none" viewBox="0 0 24 24" stroke-width="2" stroke="currentColor" aria-hidden="true">
  <path stroke-linecap="round" stroke-linejoin="round" d="M9 13H15M12 10V16M3 17V7C3 5.89543 3.89543 5 5 5H11L13 7H19C20.1046 7 21 7.89543 21 9V17C21 18.1046 20.1046 19 19 19H5C3.89543 19 3 18.1046 3 17Z"/>
</svg>

<svg xmlns="http://www.w3.org/2000/svg" fill="none" viewBox="0 0 24 24" stroke-width="2" stroke="currentColor" aria-hidden="true">
  <path stroke-linecap="round" stroke-linejoin="round" d="M9 13h6m-3-3v6m-9 1V7a2 2 0 012-2h6l2 2h6a2 2 0 012 2v8a2 2 0 01-2 2H5a2 2 0 01-2-2z"/>
</svg>
